img/icons/action/swap.svg

<svg viewBox="0 0 16 16" xmlns="http://www.w3.org/2000/svg"><path d="m5.85 0.854c0.195-0.195 0.195-0.512 0-0.707-0.195-0.195-0.512-0.195-0.707 0l-3 3c-0.195 0.195-0.195 0.512 0 0.707l3 3c0.195 0.195 0.512 0.195 0.707 0 0.195-0.195 0.195-0.512 0-0.707l-2.15-2.15h7.79c1.38 0 2.5 1.12 2.5 2.5v2c0 0.276 0.224 0.5 0.5 0.5s0.5-0.224 0.5-0.5v-2c0-1.93-1.57-3.5-3.5-3.5h-7.79l2.15-2.15z" fill="#000"/><path d="m2 7.5c0-0.276-0.224-0.5-0.5-0.5s-0.5 0.224-0.5 0.5v2c0 1.93 1.57 3.5 3.5 3.5h7.79l-2.15 2.15c-0.195 0.195-0.195 0.512 0 0.707 0.195 0.195 0.512 0.195 0.707 0l3-3c0.195-0.195 0.195-0.512 0-0.707l-3-3c-0.195-0.195-0.512-0.195-0.707 0-0.195 0.195-0.195 0.512 0 0.707l2.15 2.15h-7.79c-1.38 0-2.5-1.12-2.5-2.5v-2z" fill="#000"/></svg>

<svg xmlns="http://www.w3.org/2000/svg" viewBox="0 0 16 16" fill="none">
  <path fill="#000"
    d="M5.854.854a.5.5 0 1 0-.708-.708l-3 3a.5.5 0 0 0 0 .708l3 3a.5.5 0 1 0 .708-.708L3.707 4H11.5A2.5 2.5 0 0 1 14 6.5v2a.5.5 0 0 0 1 0v-2A3.5 3.5 0 0 0 11.5 3H3.707L5.854.854ZM2 7.5a.5.5 0 0 0-1 0v2A3.5 3.5 0 0 0 4.5 13h7.793l-2.147 2.146a.5.5 0 0 0 .708.708l3-3a.5.5 0 0 0 0-.708l-3-3a.5.5 0 0 0-.708.708L12.293 12H4.5A2.5 2.5 0 0 1 2 9.5v-2Z" />
</svg>
